X:350
%%etbk:tnset id:177,pos:1,rep:3x,ant:
%%etbk:wsite http://www.trad.katesplacedoolin.com/tunes/paddytaylors.html
%%etbk:pldat 2015-07-22T17:16,2015-03-26T19:26,2015-02-03T16:56,2014-12-18T18:26,2014-09-08T18:39,2014-05-12T18:27,2014-05-06T15:53,2014-03-21T16:07,2014-02-12T18:39,2014-02-11T17:29,2014-02-09T11:08,2013-11-12T17:54,2013-11-07T16:27,2013-09-17T10:26,2013-09-02T18:46,2013-08-26T19:02,2013-05-18T13:47,2013-05-14T18:01,2013-05-12T18:11
T:Paddy Taylor's
Z: Piano Box Version by Martin Fleischmann
H: Created 2013-02-19 /  Last Modified 2013-02-19
C:Paddy Taylor
M:6/8
L:1/8
R:jig
K: Dmaj
|: "D"!2!F2F !2!FEF | !1!D!2!F!3!A !5!d2!2!A | !5!d!1!Fd !4!c!2!A!1!G | !2!F2F "A"!3!GFE |
"D"!2!F2F !1!EFE | !1!D!2!F!3!A !5!d!3!d!5!f | "A"!4!e!3!d!2!c !1!A!1!Bc |1 "D"!3!dfe !3!d!1!A!3!G:|2 "D"!3!dfe !3!d2!4!e||
|: "D"!3!f2d !4!gfe | !3!f!1!d!2!B !1!AB=c | "G"!2!B2B !1!EFG | "D"!4!A2!1!D !2!F!1!E!1!D|
"D"!5!f2!3!f !4!gfe | !3!f!1!d!2!B !1!AFA | "A"!2!Bcd !5!ecA |1 "D"!3!dfe !3!d2!4!e:|2 "D"!3!dfe !3!d!1!A!3!G||


